!!!COM:	Bach, Johann Sebastian
!!!CDT:	1685/02/21/-1750/07/28/
!!!OTL@@DE:	Der Herr ist mein getreuer Hirt
!!!OPR: Cantata, BWV 112: Der Herr ist mein getreuer Hirt
!!!SCT:	BWV 112/5
!!!PC#:	353
!!!hymn: Nicolaus Decius (c.1485-aft.1546)
!!!AGN:	chorale
!!!ONB: Similar to 313
**kern	**kern	**kern	**kern
*ICvox	*ICvox	*ICvox	*ICvox
*Ibass	*Itenor	*Ialto	*Isoprn
*I"Bass	*I"Tenor	*I"Alto	*I"Soprano
*>[A,A,B]	*>[A,A,B]	*>[A,A,B]	*>[A,A,B]
*>norep[A,B]	*>norep[A,B]	*>norep[A,B]	*>norep[A,B]
*>A	*>A	*>A	*>A
*clefF4	*clefGv2	*clefG2	*clefG2
*k[f#]	*k[f#]	*k[f#]	*k[f#]
*G:	*G:	*G:	*G:
*M4/4	*M4/4	*M4/4	*M4/4
*met(c)	*met(c)	*met(c)	*met(c)
*MM100	*MM100	*MM100	*MM100
4GG	8BL	8dL	8gL
.	8cJ	8f#J	8aJ
=1	=1	=1	=1
8GL	4d	4g	4b
8F#J	.	.	.
4E	4e	4g	4cc
4D	4A	4f#	4dd
4AA	4A	8eL	4cc
.	.	8f#J	.
=2	=2	=2	=2
8BBL	4d	4g	4b
8CJ	.	.	.
4D	4d	4f#	4a
4GG;	4d;	4g;	4b;
4E	4e	4g	4b
=3	=3	=3	=3
8BBL	4d	4g	4b
8CJ	.	.	.
4D	4d	8f#L	8aL
.	.	8gJ	8bJ
8AAL	8eL	8aL	8ccL
8BBJ	8dJ	8gJ	8bJ
8CL	8dL	4f#	4a
8DJ	8cJ	.	.
=4	=4	=4	=4
8EL	4B	4g	8.gL
8DJ	.	.	.
.	.	.	16aJk
8CL	8eL	8gL	4a
8DJ	16dL	8f#J	.
.	16cJJ	.	.
4GG;	4B;	4d;	4g;
=:|!	=:|!	=:|!	=:|!
*>B	*>B	*>B	*>B
4G	4B	4d	4g
=5	=5	=5	=5
4F#	4A	4d	4a
4F	4G	4d	4b
4E	4G	4e	4cc
4D	4G#	4e	4b
=6	=6	=6	=6
8CL	4A	8eL	4a
8FJ	.	8cJ	.
8DL	4B	8fL	4g#
8EJ	.	8eJ	.
4AA;	4c;	4e;	4a;
8DL	4A	4f#	4a
8CJ	.	.	.
=7	=7	=7	=7
4BB	4d	4gnX	4b
4AA	4c	8gL	4cc
.	.	8fJ	.
4GG#	4B	4e	4dd
4AA	8cL	8eL	4cc
.	8dJ	8f#J	.
=8	=8	=8	=8
8EL	4e	4gnX	4b
8DJ	.	.	.
4C	4E	8gL	4a
.	.	16f#L	.
.	.	16eJJ	.
4BB;	4F#;	4d#;	4b;
8EL	8GL	4e	4b
8F#J	8AJ	.	.
=9	=9	=9	=9
4G	8BL	8dnXL	4b
.	8cJ	8eJ	.
8F#L	8dL	8f#L	8aL
8EJ	8GJ	8gJ	8bJ
8D#L	8F#L	8aL	8ccL
8EJ	16GL	[8gJ	8bJ
.	16F#JJ	.	.
8C#L	8EL	8gL]	4a
8D#J	8F#J	8f#J	.
=10	=10	=10	=10
8EL	4.G	8eL	8.gL
8BBJ	.	8dJ	.
.	.	.	16aJk
8CnXL	.	8eL	4a
8DnXJ	8F#	8dJ	.
4GG;	4B;	4d;	4g;
==	==	==	==
*-	*-	*-	*-
!!!hum2abc: -Q ''
!!!title: @{PC#}. @{OTL@@DE}
!!!YOR1: 371 vierstimmige Choralges&auml;nge von Johann Sebastian Bach, 
!!!YOR2: 4th ed. by Alfred D&ouml;rffel (Leipzig: Breitkopf und H&auml;rtel, 
!!!YOR2: c.1875). 178 pp. Plate "V.A.10".  reprint: J.S. Bach, 371 Four-Part 
!!!YOR4: Chorales (New York: Associated Music Publishers, Inc., c.1940).
!!!SMS: B&H, 4th ed, Alfred D&ouml;rffel, c.1875, plate V.A.10
!!!PC#2: 15 (Budapest/Imre, 1982)
!!!EED:  Craig Stuart Sapp
!!!EEV:  2009/05/22
